X: 148
T:Bouffard's Waltz
M:3/4
L:1/4
C:Patrick Bouffard
R:Waltz
Z:Steve Mansfield
K:D
F2E | D2F | A3 | A3 | B2c | d>cB | ABA | GFE | F2E | D2F | A3 | A3 |
B2c | dec | d3 | d3 :: F>Ad | FAd | G>Bd | GBd | A>ce | Ace |
dd/c/d/e/ | f2d | F>Ad | FAd | G>Bd | GBd | A>ce | Ace | dd/c/d/e/ | d3 :|

